X: 5
T: The Banshee's Wail Over The Mangle Pit
R: jig
M: 6/8
L: 1/8
K: Ador
cBA B>cB | AGE G>AB |cBA Bed |BAA A2 B |cBA B>cB | AGE GAB |cde ded | cAA A2 :|gfe age | dBG G2 e/f/ | gfe agf | ef^g a2 e/f/ |gfe age | dBG G2 A/B/ | cBA Bed | cAA A2 :|


Tune 131	Setting 12741

